X:1
T:In the Hall of the Mountain King
T:In the Hall of the Mountain King
T:Edvard Grieg
T:arr. Bethany Wakim
T:Bethany Wakim 2019
T:Bethany Wakim 2019
T:Bethany Wakim 2019
C:Edvard Grieg
Z:arr. Bethany Wakim
Z:Bethany Wakim 2019
%%score { 1 | 2 }
L:1/8
M:4/4
K:C
V:1 treble nm="Piano" snm="Pno."
V:2 bass 
V:1
!mf!"^Mysteriously" !fermata![Ee]8 | %1
[K:bass]!p![Q:1/4=100]"^\n  around 100 bpm  \n(don't start too fast - you'll need to speed up later!)\n" .!1!A,,.B,,.C,.D, .!5!E,.!3!C, .!5!E,2 | %2
 .!4!^D,.!2!B,, .!4!D,2 .!4!=D,.!2!_B,, .!4!D,2 | .!1!A,,.B,,.C,.D, .!5!E,.!1!C,.!2!E,.!5!A, | %4
 .!4!G,.!2!E,.!1!C,.!2!E, !4!G,2 z2 |[K:treble] .!1!A,.B,.C.D .!5!E.C .E2 | %6
 .!4!^D.B, .D2 .!4!=D._B, .D2 | .!1!A,.B,.C.D .!5!E.!1!C.!2!E.!5!A | .!4!G.E.C.E G2 z2 | %9
[K:bass]!mp! .!1!E,.^F,.^G,.A, .!5!B,.!3!G, .!5!B,2 | .!5!C.!3!^G, .!5!C2 .!5!B,.!3!G, .!5!B,2 | %11
 .E,.^F,.^G,.A, .B,.G, .!5!B,2 | .!5!C.!3!^G, .!5!C2 !4!B,2 z2 | %13
[K:treble] .!1!E.^F.^G.A .!5!B.G B2 | .!5!c.^G c2 .!5!B.G B2 | .E.^F.^G.A .!5!B.G B2 | %16
 .!5!c.^G c2 !4!B2 z2 |!p! .A,.B,.C.D .E.C E2 | .^D.B, D2 .=D._B, D2 | %19
!<(! .A,.B,.C.D .!5!E.!1!C.!2!E.!5!A | .E.C.E.A E2 z2!<)! | %21
!f!"^poco a poco accelerando al fine"[Q:1/4=102] .A.B[Q:1/4=103].c.d .e.c !>!!1!!5![Ae]2 | %22
[Q:1/4=104] .!4!^d.!2!B !>!!1!!4![Ad]2 .!4!=d.!2!_B !>!!1!!4![Ad]2 | %23
[Q:1/4=105] .A.B.c.d[Q:1/4=107] .e.c.e.a |[Q:1/4=110] .!4!g.!2!e.!1!c.e !>!!1!!4![cg]2 z2 | %25
[Q:1/4=113] .e.^f.^g.a .!5!b.!3!g !>!!1!!5![eb]2 | %26
[Q:1/4=115] .!5!c'.!3!^g !>!!1!!5![ec']2[Q:1/4=117] .!5!b.g !>!!1!!5![eb]2 | %27
[Q:1/4=120] .e.^f.^g.a .b.g !>![eb]2 |[Q:1/4=125] .c'.^g !>!!1!!5![ec']2 !>!!1!!5![eb]2 z2 | %29
!ff![Q:1/4=130]!8va(! .a.b.c'.d' .e'.c' !>![ae']2 | .^d'.b !>![ad']2 .=d'._b !>![ad']2 | %31
 .a.b.c'.d' .!5!e'.!1!c'.e'.a' | !>!!2!e'4 z4 | !>!!1!!2!!3!!5![c'^d'^f'a']2 !>![c'd'f'a']2 z4 | %34
 !>!!1!!2!!5![c'e'a']2 !>![c'e'a']2 z4 | .a.b.c'.d' .!5!e'.!1!c'.!2!e'.!4!a' | %36
 !3!^g'!1!e'!3!g'!5!b' !4!a'2!8va)! z2 |!mf! !>![c^d^fa]2 !>![cdfa]2 z4 | !>![cea]2 !>![cea]2 z4 | %39
 .A.B.c.d .e.c.e.a | .^g.e.g.b a2 z2 |!p!!<(! !1!c4 !1!!2![c^d]4 | %42
 !1!!2!!3![c^d^f]4 !1!!2!!3!!5![cdfa]4 | z8!<)! |!8va(! [ac'e'a']4 z4!8va)! |] %45
V:2
 z8 | .A,,,2 .E,,2 .A,,,2 .E,,2 | .A,,,2 .E,,2 .A,,,2 .E,,2 | .A,,,2 .E,,2 .A,,,2 .E,,2 | %4
 .C,,2 .G,,2 .C,,2 .G,,2 | .A,,,2 .E,,2 .A,,,2 .E,,2 | .A,,,2 .E,,2 .A,,,2 .E,,2 | %7
 .A,,,2 .E,,2 .A,,,2 .E,,2 | .C,,2 .G,,2 .C,,2 .G,,2 | .E,,2 .B,,2 .E,,2 .B,,2 | %10
 .E,,2 .B,,2 .E,,2 .B,,2 | .E,,2 .B,,2 .!5!E,,2 .!1!B,,2 | .!5!C,,2 .!1!^G,,2 .!5!E,,2 .!1!B,,2 | %13
 .E,,2 .B,,2 .E,,2 .B,,2 | .E,,2 .B,,2 .E,,2 .B,,2 | .E,,2 .B,,2 .E,,2 .B,,2 | %16
 .C,,2 .^G,,2 .E,,2 .B,,2 | .A,,,2 .E,,2 .A,,,2 .E,,2 | .A,,,2 .E,,2 .A,,,2 .E,,2 | %19
 .!5!A,,,2 .!2!E,,2 .!1!A,,2 .!2!G,,2 | .!3!F,,2 .!1!E,,2 .!2!D,,2 .!4!B,,,2 | %21
 .!5!A,,,2 !1!E,,/!2!^D,,/!1!E,, .A,,,2 E,,/D,,/E,, | .A,,,2 E,,/^D,,/E,, .A,,,2 E,,/D,,/E,, | %23
 .A,,,2 E,,/^D,,/E,, .A,,,2 E,,/D,,/E,, | .C,,2 G,,/^F,,/G,, .C,,2 G,,/F,,/G,, | %25
 .E,,2 B,,/^A,,/B,, .E,,2 B,,/A,,/B,, | .E,,2 B,,/^A,,/B,, .E,,2 B,,/A,,/B,, | %27
 .E,,2 B,,/^A,,/B,, .E,,2 B,,/A,,/B,, | .E,,2 B,,/^A,,/B,, !>![E,,B,,]2 z2 | %29
 .A,,,A,,, [A,,,E,,]2 .A,,,A,,, [A,,,E,,]2 | .A,,,A,,, [A,,,E,,]2 .A,,,A,,, [A,,,E,,]2 | %31
 .A,,,A,,, [A,,,E,,]2 .[A,,,E,,]2 z2 | !1!A,,2 !2!G,,2 !3!F,,2 !1!E,,2 | !5!A,,,2 !1!A,,2 z4 | %34
 A,,,2 A,,2 z4 | !1!A,,2 !2!G,,2 !3!F,,2 !4!E,,2 | !4!E,,2 !2!^G,,2 !1!A,,2 z2 | A,,,2 A,,2 z4 | %38
 A,,,2 A,,2 z4 | A,,2 G,,2 F,,2 E,,2 | E,,2 ^G,,2 A,,2 z2 | A,,2 A,,2 A,,2 A,,2 | %42
 A,,2 A,,2 A,,2 A,,2 | A,,,2 A,,A,, A,,A,,A,,A,, | [A,,,A,,]4 z4 |] %45

